X:1
T:My House Will Stand
T:Daniel Brink Towner
T:My House Will Stand
T:Public Domain
T:Public Domain
C:Daniel Brink Towner
Z:Public Domain
%%score ( 1 2 ) ( 3 4 )
L:1/8
M:4/4
K:Eb
V:1 treble 
V:2 treble 
V:3 bass 
V:4 bass 
V:1
 E[EG] | [GB]2 [GB][EB] [EB]2 [EG][GB] | [Ac]2 [Ac]>[Ac] [GB]2 [GB][GB] | %3
w: 1.~Are you|ing your house on the rock|or the sand, Are you liv-|
w: 2.~O the|is the Rock; our Found- a-|tion is tried, And is change-|
w: 3.~Though the|lows may beat and the hur-|ri- cane blow, I am fear-|
 [Ec] [Ec]2 [Ec] [EB]2 [EG][EG] | [GB]2 [GB]>[EB] [DF]2 E[EG] | [GB]2 [GB][GB] [GB] [GB]2 [GB] | %6
w: ing for time or the ag-|es to be? Do you know|your struc- ture, though shak- en,|
w: less to- day as in cen-|tu- ries flown, Though by men|re- ject- ed, He still doth|
w: less and calm in the face|of the gale; For the Word|Je- ho- vah is sure, and|
 [Ac]2 [Ac][Ad] [Ge]2 ([Ae][Ae]) | [Ae]2 [Ad][Ec] [Ec] [EB]2 [EG] | [GB]2 [FA]>[DF] E3 || %9
w: will stand, Un- harmed by *|the tem- pests which sweep o’er|the sea? * *|
w: a- bide, He’s~the blest Rock *|of Ag- es, the great Liv-|ing Stone. Let rains|
w: I know, Having built on *|my Sav- ior, they can- not|pre- vail. * *|
"^Refrain" B | [Ge]2 (BA) [Ge]3 B | [Ac]2 [Ac]2 [GB]3 B | [Bf]2 (cB) [=Af]3 [Bd] | %13
w: ||||
w: scend|tem- pests * sweep; Let|rise and bil- lows|My house * will stand|
w: ||||
 [Fd]2 (FE) [DB]3 [FB] | (EG)(BA) [Ge]3 B | [Ac]2 [Ac]2 [GB]3 [GB] | [Ac]2 [Ae]2 [Ge]3 [GB] | %17
w: ||||
w: ev- ery * shock, For|have * built * up- on|||
w: ||||
 [Ac]2 [Ad]2 [Ge]2 |] %18
w: |
w: |
w: |
V:2
 E x | x8 | x8 | x8 | x6 E x | x8 | x8 | x8 | x4 E3 || B | x2 e2 x2 B x | x7 B | x2 f2 x4 | %13
w: build-||||that|||||||||
w: Lord||||once||||de-|and|floods a-|leap;|’neath|
w: bil-||||of|||||||||
 x2 c2 x4 | e2 e2 x2 B x | x8 | x8 | x6 |] %18
w: |||||
w: I|the Rock *||||
w: |||||
V:3
 [E,G,][E,B,] | [E,E]2 [E,B,][E,G,] [E,G,]2 [E,B,][E,E] | [A,E]2 [A,E]>[A,E] [E,E]2 [E,E][E,E] | %3
 A, A,2 A, [E,G,]2 [E,B,][E,B,] | [E,E]2 [E,E]>[G,B,] B,2 [E,G,][E,B,] | %5
 [E,E]2 [E,E][E,E] [E,E] [E,E]2 [E,E] | [A,E]2 [A,E][F,B,] [E,B,]2 ([E,B,][E,B,]) | %7
 [A,C]2 [A,B,]A, [E,A,] [E,G,]2 [E,B,] | [B,,E]2 [B,,B,]>[B,,A,] [E,G,]3 || B, | %10
 (E,B,)(G,F,) [E,B,]3 [G,E] | (A,B,)(CA,) [E,E]3 [G,E] | (F,B,)(=A,G,) [F,C]3 [F,B,] | %13
 (E,B,)([=A,C][F,A,]) B,3 [_A,B,] | (G,B,)(G,F,) [E,B,]3 [G,E] | (A,B,)(CA,) [E,E]3 [E,E] | %16
 [A,E]2 [A,C]2 [E,B,]3 [E,E] | [B,,B,D]2 (B,A,) [E,B,]2 |] %18
V:4
 x2 | x8 | x8 | A, A,2 A, x4 | x4 B,2 x2 | x8 | x8 | x3 A, x4 | x7 || B, | B,2 B,2 x4 | E2 E2 x4 | %12
 D2 C2 x4 | B,2 x B,3 x2 | B,2 B,2 x4 | E2 E2 x4 | x8 | x2 [B,,B,]2 x2 |] %18

